X:1
T:Chi la gagliarda, donne, vo' imparare?
T:Chi la gagliarda, donne, vo' imparare?
T:Baldasarre Donato (1525?-1603)
C:Baldasarre Donato (1525?-1603)
%%score [ 1 2 3 4 ]
L:1/8
Q:1/4=140
M:2/2
K:F
V:1 treble nm="Soprano"
V:2 treble nm="Alto"
V:3 treble-8 nm="Tenor"
V:4 bass nm="Bass"
V:1
 z4 z2 c2 |: c2 c2 c4 | A4 z2 F2 | F2 F2 A4 | A2 G4 F2 | D2 F2 F2 E2 |1 F4 z2 c2 :|2 F4 A4 || %8
w: Chi|la ga- gliar-|da, chi|la ga- gliar-|da, don- ne,|vo'~im- pa- ra- *|re? Chi|\-re? Ve-|
 B4 G4 | A6 A2 | G4 E2 F2- | F2 E2 G4 | A2 A4 B2 | G4 A2 A2- | A2 c2 =B4 | c2 G4 G2 | c3 B A2 A2 | %17
w: ni- te~a|noi che|sia- mo ma-|* stri fi-|ni, ma- stri|fi- ni, ma-|* stri fi-|ni. Ché di|se- ra~e da mat-|
 B4 G2 c2- | c2 F2 A4 | G2 G4 G2 | c6 B2 | A2 G2 G2 ^F2 ||[M:6/4] G4 z2 A2 A2 B2 | %23
w: ti- ni mai|_ man- chia-|mo, mai man-|chia- mo|di so- na- *|re: tan tan tan|
 c3 c c2 A2 F2 G2 | A3 G A2 B2 A2 B2 | c4 A2 c4 B2 | A3 G F2 G2 F2 E2 | F4 A2 c4 B2 | %28
w: tà- ri- ra, tan tan tan|tà- ri- ra, ri- ra- ri-|rà, tan tan tan|tà- ri- ra, ri- ra- ri-|rà, tan tan tan|
 A3 G F2 G2 F2 E2 | !fermata!F12 |] %30
w: tà- ri- ra ri- ra- ri-|rà.|
V:2
 C4 C2 C2 |: F4 E4 | z2 A,2 A,2 A,2 | D4 C2 C2- | C2 E4 F2- | F2 D2 C4 |1 C2 C2 C2 C2 :|2 C4 C4 || %8
w: Chi la ga-|gliar- da,|chi la ga-|gliar- da, son-|* ne, vo'~im-|* pa- ra-|re? Chi la ga\-|\-re? Ve-|
 G4 E4 | F3 E/D/ C2 F2 | D4 C2 C2- | C2 C2 D4 | F2 F4 D2 | E4 F4 | F2 E2 G4 | E4 E4- | E2 E2 F3 E | %17
w: ni- te~a|no- * * i che|sia- mo ma-|* stri fi-|ni, ma- stri|fi- ni,|ma- stri fi-|ni. Ché|_ di se- ra~e|
 D2 D2 E4 | C2 C4 F2 | D4 E2 E2- | E2 E2 C2 F2 | F2 D2 D4 ||[M:6/4] D4 z2 F2 F2 D2 | %23
w: da mat- ti-|ni mai man-|chia- mo, mai|_ man- chia- mo|di so- na-|re: tan tan tan|
 F3 F E2 C2 D2 E2 | F3 E F2 F2 F2 D2 | F4 F2 E4 F2 | F3 D D2 D2 C2 C2 | C4 C2 E4 F2 | %28
w: tà- ri- ra, tan tan tan|tà- ri- ra, ri- ra- ri-|rà, tan tan tan|tà- ri- ra, ri- ra- ri-|rà, tan tan tan|
 F3 D D2 D2 C2 C2 | !fermata!C12 |] %30
w: tà- ri- ra ri- ra- ri-|rà.|
V:3
 z4 A4 |: A2 A2 G4 | F2 F2 F2 F2 | B4 A4 | c6 A2 | B2 B2 G4 |1 F4 A4 :|2 A4 A4 || d4 c4 | c4 A4 | %10
w: Chi|la ga- gliar-|da, chi la ga-|gliar- da,|don- ne,|vo'~im- pa- ra-|re? Chi|\-re? Ve-|ni- te~a|noi che|
 B4 G2 A2- | A2 A2 B4 | c2 d4 d2 | c4 c2 c2- | c2 c2 d4 | c4 G4 | G2 A3 G F2 | F2 G4 G2 | A6 F2 | %19
w: sia- mo ma-|* stri fi-|ni, ma- stri|fi- ni, ma-|* stri fi-|ni. Ché|di se- ra~e da|mat- ti- ni|mai man-|
 B4 G2 G2- | G2 G2 A2 d2 | c2 B2 A4 ||[M:6/4] G4 z2 c2 d2 B2 | A3 A G2 A2 A2 B2 | %24
w: chia- mo, mai|_ man- chia- mo|di so- na-|re: tan tan tan|tà- ri- ra, tan tan tan|
 c3 c c2 d2 c2 B2 | A4 A2 G4 d2 | c3 B A2 B2 G2 G2 | A4 A2 G4 d2 | c3 B A2 B2 G2 G2 | %29
w: tà- ri- ra, ri- ra- ri-|rà, tan tan tan|tà- ri- ra, ri- ra- ri-|rà, tan tan tan|tà- ri- ra ri- ra- ri-|
 !fermata!F12 |] %30
w: rà.|
V:4
 z2 F,2 F,2 F,2 |: F,4 C,4 | z2 D,2 D,2 D,2 | B,,C,D,E, F,4 | F,2 C,4 D,2 | B,,2 B,,2 C,4 |1 %6
w: Chi la ga-|gliar- da,|chi la ga-|gliar- * * * *|da, don- ne,|vo'~im- pa- ra-|
 F,,2 F,2 F,2 F,2 :|2 F,,4 F,4 || G,4 C,4 | F,6 D,2 | G,4 C,2 F,2- | F,2 A,2 G,4 | F,2 D,4 G,,2 | %13
w: re? Chi la ga\-|\-re? Ve-|ni- te~a|noi che|sia- mo ma-|* stri fi-|ni, ma- stri|
 C,4 F,,2 F,2- | F,2 A,2 G,4 | C,4 C,4- | C,2 A,,2 D,3 C, | B,,2 G,,2 C,4 | F,2 F,4 D,2 | %19
w: fi- ni, ma-|* stri fi-|ni. Ché|_ di se- ra~e|da mat- ti-|ni mai man-|
 G,4 C,2 C,2- | C,2 C,2 F,2 D,2 | F,2 G,2 D,4 ||[M:6/4] G,4 z2 F,2 D,2 G,2 | %23
w: chia- mo, mai|_ man- chia- mo|di so- na-|re: tan tan tan|
 F,3 F, C,2 F,2 D,2 G,2 | F,3 C, F,2 B,,2 F,2 G,2 | F,4 F,2 C,4 D,2 | F,3 G, D,2 B,,2 C,2 C,2 | %27
w: tà- ri- ra, tan tan tan|tà- ri- ra, ri- ra- ri-|rà, tan tan tan|tà- ri- ra, ri- ra- ri-|
 F,,4 F,2 C,4 D,2 | F,3 G, D,2 B,,2 C,2 C,2 | !fermata!F,,12 |] %30
w: rà, tan tan tan|tà- ri- ra ri- ra- ri-|rà.|

